src/assets/img/pay_credit_tab_2.svg

<svg xmlns="http://www.w3.org/2000/svg" xmlns:xlink="http://www.w3.org/1999/xlink" width="234" height="234" viewBox="0 0 234 234" version="1.1">
    <!-- Generator: Sketch 3.7.2 (28276) - http://www.bohemiancoding.com/sketch -->
    <title>pay_credit_tab_2</title>
    <desc>Created with Sketch.</desc>
    <defs/>
    <g id="Page-1" stroke="none" stroke-width="1" fill="none" fill-rule="evenodd">
        <g id="pay_credit_tab_2" fill="#E2E2E2">
            <path d="M116.8758,4.2519 C71.3236699,4.25186174 30.2568842,31.6918007 12.82486,73.7764902 C-4.6071643,115.86118 5.02852034,164.302739 37.2388,196.5129 C81.2310177,240.437701 152.493434,240.410379 196.451956,196.451856 C240.410479,152.493334 240.437801,81.2309177 196.513,37.2387 C175.413876,16.0847385 146.753243,4.21311895 116.8758,4.2519 L116.8758,4.2519 L116.8758,4.2519 Z M143.0524,127.9338 L159.6093,127.9338 C160.23991,127.935503 160.750697,128.44629 160.7524,129.0769 L160.7524,140.1078 C160.750752,140.738449 160.239949,141.249297 159.6093,141.251 L143.0524,141.251 C142.421696,141.249352 141.910803,140.738504 141.9091,140.1078 L141.9091,129.0769 C141.910858,128.446274 142.421674,127.935503 143.0523,127.9338 L143.0523,127.9338 L143.0524,127.9338 Z M67.7491,78.3295 L166.0025,78.3295 C168.223258,78.3325266 170.351555,79.2190262 171.9178,80.7934 L171.922,80.7891 C173.496325,82.3569329 174.381344,84.4872544 174.3814,86.7091 L174.3814,147.043 C174.381333,149.264843 173.496315,151.395161 171.922,152.963 L171.9182,152.9578 C170.351955,154.532174 168.223658,155.418673 166.0029,155.4217 L67.7491,155.4217 C65.5283478,155.41879 63.4000389,154.532271 61.8339,152.9578 L61.8296,152.9621 C60.255238,151.394292 59.3702122,149.263954 59.3702,147.0421 L59.3702,86.7087 C59.3702011,84.4868434 60.2552286,82.3565015 61.8296,80.7887 L61.8339,80.793 C63.4001297,79.2187135 65.5284143,78.332348 67.7491,78.3295 L67.7491,78.3295 L67.7491,78.3295 Z M63.6221,96.9595 L170.1295,96.9595 L170.1295,86.7087 C170.128197,85.6148991 169.691431,84.5666313 168.9157,83.7955 L168.9157,83.787 C168.14361,83.013759 167.095314,82.5799168 166.0026,82.5814 L67.7491,82.5814 C66.6563864,82.5799168 65.6080903,83.013759 64.836,83.787 L64.836,83.7955 C64.0602689,84.5666313 63.6235027,85.6148991 63.6222,86.7087 L63.6222,96.9594 L63.6222,96.9594 L63.6221,96.9595 Z M170.1294,114.0195 L63.6222,114.0195 L63.6222,147.043 C63.6235182,148.136768 64.0602841,149.184999 64.836,149.9561 L64.836,149.9646 C65.6080426,150.737925 66.6563611,151.171812 67.7491,151.1703 L166.0025,151.1703 C167.095225,151.171838 168.143541,150.737988 168.9156,149.9647 L168.9156,149.9561 C169.691316,149.184999 170.128082,148.136768 170.1294,147.043 L170.1294,114.0193 L170.1294,114.0193 L170.1294,114.0195 Z M34.2322,34.2323 C56.1505894,12.3137871 85.8783791,8.43657683e-05 116.87575,8.43657683e-05 C147.873121,8.43657683e-05 177.600911,12.3137871 199.5193,34.2323 C221.437911,56.1506374 233.751681,85.8784466 233.751681,116.87585 C233.751681,147.873253 221.437911,177.601063 199.5193,199.5194 C177.60095,221.437986 147.873145,233.75174 116.87575,233.75174 C85.8783547,233.75174 56.1505504,221.437986 34.2322,199.5194 C12.3137116,177.600998 2.57874625e-05,147.873213 2.57874625e-05,116.87585 C2.57874625e-05,85.8784872 12.3137116,56.1507024 34.2322,34.2323 L34.2322,34.2323 L34.2322,34.2323 Z" id="Shape"/>
        </g>
    </g>
</svg>

<svg xmlns="http://www.w3.org/2000/svg" width="234" height="234"><path d="M116.876 4.252c-45.552 0-86.62 27.44-104.051 69.524-17.432 42.085-7.796 90.527 24.414 122.737 43.992 43.925 115.254 43.897 159.213-.061 43.958-43.959 43.986-115.221.061-159.213a112.272 112.272 0 0 0-79.637-32.987Zm26.176 123.682h16.557c.63.002 1.142.512 1.143 1.143v11.03a1.146 1.146 0 0 1-1.143 1.144h-16.557a1.146 1.146 0 0 1-1.143-1.143v-11.031a1.146 1.146 0 0 1 1.143-1.143ZM67.75 78.329h98.254a8.36 8.36 0 0 1 5.915 2.464l.004-.004a8.355 8.355 0 0 1 2.46 5.92v60.334a8.355 8.355 0 0 1-2.46 5.92l-.004-.005a8.36 8.36 0 0 1-5.915 2.464H67.749a8.359 8.359 0 0 1-5.915-2.464l-.004.004a8.355 8.355 0 0 1-2.46-5.92V86.71c0-2.222.885-4.352 2.46-5.92l.004.004a8.36 8.36 0 0 1 5.915-2.464Zm-4.127 18.63H170.13V86.71a4.115 4.115 0 0 0-1.214-2.913v-.009a4.109 4.109 0 0 0-2.913-1.206H67.749a4.109 4.109 0 0 0-2.913 1.206v.008a4.115 4.115 0 0 0-1.214 2.914v10.25Zm106.507 17.06H63.622v33.024a4.115 4.115 0 0 0 1.214 2.913v.009a4.108 4.108 0 0 0 2.913 1.205h98.254a4.108 4.108 0 0 0 2.913-1.205v-.009a4.115 4.115 0 0 0 1.213-2.913v-33.024ZM34.232 34.232A116.875 116.875 0 1 1 199.52 199.518 116.875 116.875 0 0 1 34.232 34.232Z" fill="#E2E2E2" fill-rule="evenodd"/></svg>
